X:166
T:Sleepy Maggie (r)
B:NFID.240b
166sleepy
S:PT
L:1/8
M:C
R:reel
Q:360
K:Bm
B2b2 fBBB|B2af edcA|B2b2 a3f|fef^g aece:|
dfBf dfBf|ceAe ceAe|dfBf dfBf|faaf edce:|
fBBA FBBf|fBBA edce|fBBA FBBf|faaf edce:|

%%%

